X:1
T:Title
%%score { ( 1 3 ) | ( 2 4 ) }
L:1/8
Q:1/4=100
M:4/4
K:Bb
V:1 treble nm="Grand Piano"
V:3 treble 
V:2 bass 
V:4 bass 
V:1
 [DF]3 [DF] [EG]2 [EA]2 | [DB]4 [Fd]4 | c3 B A2 B2 | c6 z2 | [^Fd]3 [Fd] [Fd]2 [FA]2 | %5
w: D.~B.~Towner * * *|||||
 [Gc]4 [EGB]4 | [=EGB]3 [EG] [CFA]2 [B,EB]2 | [Ec]6 z2 | D2 F2 B4 | [B,EG]4 [Ec]2 B2 | %10
w: |||||
 A>B A>G F>G F>E | D2 [EG]2 [DF]4 | D2 F2 B4 | [B,EG]4 [Ec]2 B2 | A>B A>G F>G A<c | %15
w: |||||
 B2[Q:1/4=88] .F2 z4[Q:1/4=98][Q:1/4=97][Q:1/4=95][Q:1/4=94][Q:1/4=92][Q:1/4=91][Q:1/4=89][Q:1/4=86][Q:1/4=84][Q:1/4=83][Q:1/4=81][Q:1/4=80][Q:1/4=78][Q:1/4=77] |] %16
w: |
V:2
 [B,,B,]3 [B,,B,] [E,B,]2 [C,F,]2 | [B,,F,]4 [B,,B,]4 | [F,A,E]3 [F,B,E] [F,CE]2 [F,B,D]2 | %3
 [F,A,F]6 z2 | [D,A,]3 [D,A,] [D,A,]2 [D,C]2 | [E,B,]4 E,4 | C,3 C, C,2 C,2 | [F,A,]6 z2 | %8
 B,,>C, D,>C, [B,,F,]2 D,2 | E,>F, G,>F, [E,G,]2 [G,C=E]2 | %10
 [F,CF]>[F,DF] [F,CF]>[F,B,E] [F,A,E]>[F,B,E] [F,A,E]>[F,C] | [B,,F,B,]2 [B,,B,]2 [B,,B,]4 | %12
 B,,>C, D,>C, [B,,F,]2 D,2 | E,>F, G,>F, [E,G,]2 [G,C=E]2 | %14
 [F,CF]>[F,DF] [F,CF]>[F,B,E] [F,A,E]>[F,B,E] [F,CE]<[F,A,E] | .[D,D]2 z2 z4 |] %16
V:3
 x8 | x8 | x8 | x8 | x8 | x8 | x8 | x8 | [B,F]->[B,-EF] B,->[B,E] D2 [B,F]2 | x8 | x8 | x8 | %12
 [B,F]->[B,-EF] B,->[B,E] D2 [B,F]2 | x8 | x8 | z G[B,B]-[B,EB] [B,DB]4 |] %16
V:4
 x8 | x8 | x8 | x8 | x8 | x8 | x8 | x8 | x8 | x8 | x8 | x8 | x8 | x8 | x8 | B,-[E,B,]D,C, B,,4 |] %16

